X:1163
T:Wiggen
R:Snoa
Z:Klas Krantz, 2006
C:Rupert Wigg
O:Frösön, Jämtland
Q:108
L:1/8
M:2/4
K:D
A/G/ | "D"FA dF | A3 B/A/ | "G"GB dG | B3 c/B/ |
"A"Ac e>f | g~f ed | "A7"cA Bc |[1 "D"df/d/ A :|[2 "D"d2 d A/G/ |
|: "D"F/A/d/A/ F/A/d/A/ | F/A/d/A/ F B/A/ | "G"G/B/d/B/ G/B/d/B/ | G/B/d/B/ G c/B/ |
"A"A/c/e/c/ A/c/e/c/ | A/c/e/c/ ~A2 |[1 "A7"{B}A^G/A/ BA | "D"F3 A/G/ :|[2 "A7"{B}A^G/A/ B/A/B/c/ | "D"dd/d/ dz|
|:"D"ff/f/ ff | fe de | "G"dB/B/ BB | B4 |
"A"A/c/e/c/ A/c/e/c/ | A/c/e/c/ ~A2 |[1 "A7"{B}A^G/A/ BA | "D"F4 :|[2 "A7"{B}A^G/A/ B/A/B/c/ | "D"dd/d/ d |]
(:musicend:)

[[!Ackord]]
(:music:)
